X:1
T:The Bonny Young Irish Boy
M:6/8
L:1/8
K:C
 C| C2 CE-F G| c2 cB-A G| FED C2 B,| C3- C2 G| G2 E GAB| c3 d2 c| B2 D B2 A|\
 G3- G2 E| G2 E GAB| c3 d2 c| B2 D B2 A| G3- G2 C| C2 CE-F G| c2 cB-A G|\
 FED C2 B,| C3- C2||

